<?xml version="1.0" encoding="UTF-8"?>
<map version="1.9" tiledversion="1.9.2" orientation="orthogonal" renderorder="right-down" width="30" height="20" tilewidth="16" tileheight="16" infinite="0" nextlayerid="6" nextobjectid="42">
 <tileset firstgid="1" source="parede.tsx"/>
 <tileset firstgid="2" source="quina.tsx"/>
 <tileset firstgid="3" source="interagiveis.tsx"/>
 <tileset firstgid="6" source="tenda.tsx"/>
 <tileset firstgid="18" source="cerca.tsx"/>
 <tileset firstgid="27" name="floor" tilewidth="16" tileheight="16" tilecount="2" columns="2">
  <image source="../images/floor.png" width="32" height="16"/>
 </tileset>
 <layer id="5" name="fundo" width="30" height="20">
  <data encoding="csv">
28,28,28,28,28,28,28,28,28,28,28,28,28,28,28,28,28,28,28,28,28,28,28,28,28,28,28,28,28,28,
28,28,28,28,28,28,28,28,28,28,28,28,28,28,28,28,28,28,28,28,28,28,28,28,28,28,28,28,28,28,
28,28,28,28,27,27,28,28,28,28,28,28,28,27,27,28,28,28,28,28,28,28,28,27,27,28,28,28,28,28,
28,28,28,28,27,27,28,28,28,28,28,28,28,27,27,28,28,28,28,28,28,28,28,27,27,28,28,28,28,28,
28,28,28,28,27,27,28,28,28,28,28,28,28,27,27,28,28,28,28,28,28,28,28,27,27,28,28,28,28,28,
28,28,28,28,27,27,27,27,27,27,27,27,27,27,27,27,27,27,27,27,27,27,27,27,27,28,28,28,28,28,
28,28,28,28,27,27,27,27,27,27,27,27,27,27,27,27,27,27,27,27,27,27,27,27,27,28,28,28,28,28,
28,28,28,28,27,27,27,27,27,27,27,27,27,27,27,27,27,27,27,27,27,27,27,27,27,28,28,28,28,28,
28,28,28,28,28,28,28,28,28,28,28,28,28,28,28,28,28,28,28,28,28,28,28,28,28,28,28,28,28,28,
28,28,28,28,28,28,28,28,28,28,28,28,28,28,28,28,28,28,28,28,28,28,28,28,28,28,28,28,28,28,
28,28,28,28,28,28,28,28,28,28,28,28,28,28,28,28,28,28,28,28,28,28,28,28,28,28,28,28,28,28,
28,28,28,28,28,28,28,28,28,28,28,28,28,28,28,28,28,28,28,28,28,28,28,28,28,28,28,28,28,28,
28,28,28,28,28,28,28,28,28,28,28,28,28,28,28,28,28,28,28,28,28,28,28,28,28,28,28,28,28,28,
28,28,28,28,28,28,28,28,28,28,28,28,28,28,28,28,28,28,28,28,28,28,28,28,28,28,28,28,28,28,
28,28,28,28,28,28,28,28,28,28,28,28,28,28,28,28,28,28,28,28,28,28,28,28,28,28,28,28,28,28,
28,28,28,28,28,28,28,28,28,28,28,28,28,28,28,28,28,28,28,28,28,28,28,28,28,28,28,28,28,28,
28,28,28,28,28,28,28,28,28,28,28,28,28,28,28,28,28,28,28,28,28,28,28,28,28,28,28,28,28,28,
28,28,28,28,28,28,28,28,28,28,28,28,28,28,28,28,28,28,28,28,28,28,28,28,28,28,28,28,28,28,
28,28,28,28,28,28,28,28,28,28,28,28,28,28,28,28,28,28,28,28,28,28,28,28,28,28,28,28,28,28,
28,28,28,28,28,28,28,28,28,28,28,28,28,28,28,28,28,28,28,28,28,28,28,28,28,28,28,28,28,28
</data>
 </layer>
 <layer id="2" name="objetosEparedes" width="30" height="20">
  <data encoding="csv">
18,19,19,19,19,19,19,19,19,19,19,19,19,19,19,19,19,19,19,19,19,19,19,19,19,19,19,19,19,20,
21,0,0,6,7,8,9,0,0,0,0,0,6,7,8,9,0,0,0,0,0,0,6,7,8,9,0,0,0,23,
21,0,0,10,11,12,13,0,0,0,0,0,10,11,12,13,0,0,0,0,0,0,10,11,12,13,0,0,0,23,
21,0,0,14,15,5,17,0,0,0,0,0,14,15,3,17,0,0,0,0,0,0,14,15,4,17,0,0,0,23,
21,0,0,0,0,0,0,0,0,0,0,0,0,0,0,0,0,0,0,0,0,0,0,0,0,0,0,0,0,23,
21,0,0,0,0,0,0,0,0,0,0,0,0,0,0,0,0,0,0,0,0,0,0,0,0,0,0,0,0,23,
21,0,0,0,0,0,0,0,0,15,0,0,0,0,0,0,0,0,0,0,0,0,0,0,0,0,0,0,0,23,
21,0,0,0,0,0,0,0,0,15,0,0,0,0,0,0,0,0,0,0,0,0,0,0,0,0,0,0,0,23,
21,0,0,0,0,0,0,0,0,15,0,0,0,0,0,0,0,0,0,0,0,0,0,0,0,0,0,0,0,23,
24,25,25,25,25,25,25,25,25,25,25,25,25,25,25,25,25,25,25,25,25,25,25,25,25,25,25,25,25,26,
0,0,0,0,0,0,0,0,0,0,0,0,0,0,0,0,0,0,0,0,0,0,0,0,0,0,0,0,0,0,
0,0,0,0,0,0,0,0,0,0,0,0,0,0,0,0,0,0,0,0,0,0,0,0,0,0,0,0,0,0,
0,0,0,0,0,0,0,0,0,0,0,0,0,0,0,0,0,0,0,0,0,0,0,0,0,0,0,0,0,0,
0,0,0,0,0,0,0,0,0,0,0,0,0,0,0,0,0,0,0,0,0,0,0,0,0,0,0,0,0,0,
0,0,0,0,0,0,0,0,0,0,0,0,0,0,0,0,0,0,0,0,0,0,0,0,0,0,0,0,0,0,
0,0,0,0,0,0,0,0,0,0,0,0,0,0,0,0,0,0,0,0,0,0,0,0,0,0,0,0,0,0,
0,0,0,0,0,0,0,0,0,0,0,0,0,0,0,0,0,0,0,0,0,0,0,0,0,0,0,0,0,0,
0,0,0,0,0,0,0,0,0,0,0,0,0,0,0,0,0,0,0,0,0,0,0,0,0,0,0,0,0,0,
0,0,0,0,0,0,0,0,0,0,0,0,0,0,0,0,0,0,0,0,0,0,0,0,0,0,0,0,0,0,
0,0,0,0,0,0,0,0,0,0,0,0,0,0,0,0,0,0,0,0,0,0,0,0,0,0,0,0,0,0
</data>
 </layer>
 <objectgroup id="3" name="Colisoes" visible="0">
  <object id="5" x="0.565217" y="0.076087" width="15.5" height="319.5"/>
  <object id="9" x="463.977" y="0.159091" width="16.1364" height="319.5"/>
  <object id="11" x="16.087" y="-0.0434783" width="447.864" height="16.087"/>
  <object id="12" x="16.1391" y="303.901" width="447.864" height="16.087"/>
  <object id="13" x="96" y="16" width="16.25" height="48.5"/>
  <object id="14" x="192" y="16" width="16.25" height="48.5"/>
  <object id="16" x="240" y="16" width="16.25" height="48.5"/>
  <object id="17" x="48" y="16" width="16.25" height="48.5"/>
  <object id="33" x="64" y="16" width="32" height="32"/>
  <object id="34" x="208" y="16" width="32" height="32"/>
  <object id="35" x="352" y="16" width="64" height="32"/>
  <object id="36" x="352" y="48" width="16" height="16"/>
  <object id="37" x="400" y="48" width="16" height="16"/>
  <object id="41" x="16" y="144" width="447.864" height="16.087"/>
 </objectgroup>
 <objectgroup id="4" name="Interacoes" visible="0">
  <object id="23" name="minigame_cards" x="80" y="48" width="16" height="16"/>
  <object id="24" name="minigame_shooter" x="224" y="48" width="15.9375" height="15.8125"/>
  <object id="25" name="minigame_whack" x="384" y="48" width="16.1087" height="15.9348"/>
 </objectgroup>
</map>
